!!!!SEGMENT: pl-wtm--r-1351_stefani-jozef--andante.krn
!!!cenid: 18xx:1863
!!!COM: Stefani, Józef
!!!COM-rismid: pe30024097
!!!CDT: 1800/04/16-1876/03/19
!!!CNT: Polish
!!!OTL: Andante
!!!PDT:
!!!AGN: Secular
!!!SMS-siglum: PL-Wtm
!!!SMS-shelfmark: R 1351
!!!SMS-shelfwork: W
!!!SMS-variant:
!!!SMS-altvar:
!!!NIFC-rismid: 1001119404
!!!URL-scan: http://repozytorium.nifc.pl/skany/pl-wtm-nut--r1351
!!!ONB-nifc: UWAGA: bez podziału na części
**kern	**kern	**dynam
*part2	*part1	*part1
*staff2	*staff1	*
*Ipiano	*Ipiano	*
*I"[Piano]	*I"[Piano]	*
*I'[pf]	*I'[pf]	*
*clefF4	*clefG2	*
*k[f#c#]	*k[f#c#]	*
*D:	*D:	*
*M2/4	*M2/4	*
*>[A,B,B,C,C,D,D1,D,D2,B,B,C,C,D,D1,D,D2,E,E,F,F1,F,F2,E,E,F,F1,F,F2,G]	*>[A,B,B,C,C,D,D1,D,D2,B,B,C,C,D,D1,D,D2,E,E,F,F1,F,F2,E,E,F,F1,F,F2,G]	*
=1	=1	=1
*>A	*>A	*
*^	*	*
!	!	!LO:TX:i:a:t=Andante.	!
!	!	!LO:TX:a:t=P:problem:all\right	!
4D/	8D\L	2r	.
.	8AJ 8F#\	.	.
*rep	*rep	*	*
4D/	8D\L	.	.
.	8AJ 8F#\	.	.
*Xrep	*Xrep	*	*
=2	=2	=2	=2
4D/	8D\L	4r	.
.	8AJ 8F#\	.	.
*rep	*rep	*	*
4D/	8D\L	8r	.
!	!	!LO:TX:a:t=P:problem:znak segno nad podwójną kreską	!
!	!	!LO:TX:a:t=[segno]	!
.	8AJ 8F#\	8a/	.
*Xrep	*Xrep	*	*
*v	*v	*	*
=3!|:	=3!|:	=3!|:
*>B	*>B	*
*2\right	*2\right	*
8D\L	16g#X'>\LL	.
.	16a'>\J	.
8AJ 8F#\	[>8ff#'>\J	.
*rep	*	*
8D\L	16ff#\LL]	.
.	16ee'>\	.
8AJ 8F#\	16dd'>\	.
.	16cc#'>\JJ	.
*Xrep	*	*
=4	=4	=4
8D\L	16ee\LL	.
.	16dd\JJ	.
.	(<32qqcc#/LLL	.
.	32qqdd/	.
.	32qqee/JJJ)	.
8AJ 8F#\	16dd\LL	.
.	16cc#\JJ	.
*rep	*	*
8D\L	8.dd\L	.
8AJ 8F#\	.	.
.	16cc#\Jk	.
*Xrep	*	*
!!LO:LB:g=original
=5	=5	=5
*^	*	*
8GG/L	4GG\	16a#X'>\LL	.
.	.	16b'>\J	.
8EJ 8BB/	.	[>8gg'>\J	.
*rep	*rep	*	*
8GG/L	4GG\	16gg\LL]	.
.	.	16ff#'>\	.
8EJ 8BB/	.	16ee'>\	.
.	.	16dd#X'>\JJ	.
*Xrep	*Xrep	*	*
=6	=6	=6	=6
8GG/L	4GG\	(>16ff#\LL	.
.	.	16ee\JJ)	.
.	.	(<32qqdd#X/LLL	.
.	.	32qqee/	.
.	.	32qqff#/JJJ)	.
8EJ 8BB/	.	16ee\LL	.
.	.	16dd#y\JJ	.
8GG#X/L	4GG#\	8.ee\L	.
8EJ 8BB/	.	.	.
.	.	16ddn\Jk	.
=7	=7	=7	=7
4AA/	8AA\L	16b#X\LL	.
!	!	!	!LO:HP:b:t=cresc&colon;
.	.	16cc#\J	<
.	8GnJ 8E 8C#\	[>8aa\J	.
*rep	*rep	*	*
4AA/	8AA\L	16aa\LL]	.
.	.	16gg\	.
.	8GnJ 8E 8C#\	16ff#\	.
.	.	16ee#X\JJ	.
*Xrep	*Xrep	*	*
*v	*v	*	*
=8	=8	=8
16F#LL 16D\	16ff#\LL	sf
(>16A#X\	(>16cc#\	.
16B\)	16dd\)	.
(>16F#\JJ	(>16a#X\JJ	.
16G\LL)	16b/LL)	.
(>16D#X\	(<16f#/	.
16E\)	16g/)	.
!LO:TX:a:t=P:problem:brak zakończenia łuku	!	!
(>16C#\JJ	(<16e/JJ	.
!!LO:LB:g=original
=9	=9	=9
*^	*	*
4AA/)	8AA\L	16b/LL)	.
.	.	16b-X'</J	.
.	8GJ 8E 8C#\	8a'</J	.
4AA/	8AA\L	16a/	.
!	!	!	!LO:DY:b:rj
.	.	32A'</LLL	f
.	.	32B'</JJJ	.
.	8GJ 8E\	32c#'</LLL	.
.	.	32d'</	.
.	.	32e'</	.
.	.	32c#'</JJJ	.
*v	*v	*	*
=10	=10	=10
8F#L 8D\	16d^</LL	.
.	16f#/JJ	.
8GJ 8E 8AA\	16.e/LL	.
.	32c#/JJk	.
4F# 4D\	4d/	.
=11:|!|:	=11:|!|:	=11:|!|:
*>C	*>C	*
.	(<8qd#X/	.
8AA\L	16e/)	.
.	16r	.
8c#J 8A 8E\	8.ee'>\L	.
*rep	*	*
8AA\L	.	.
.	16ff#'>\L	.
8c#J 8A 8E\	16gg#X'>\	.
.	16aa'>\JJ	.
*Xrep	*	*
=12	=12	=12
8AA\L	(>16bb#X\LL	.
.	16ccc#\)	.
8c#J 8A 8E\	16.ee'>\	.
.	32dd#X'>\JJk	.
.	(<8qff#/	.
*rep	*	*
8AA\L	16ee\LL)	.
.	32r	.
.	32dd#'>\JK	.
8c#J 8A 8E\	8ee'>\J	.
*Xrep	*	*
!!LO:LB:g=original
=13	=13	=13
!	!LO:TUP:a	!
8AA\L	(>24ff#\LL	.
.	24ee\)	.
.	24cc#'>\JJ	.
8c#J 8A 8E\	8.a/L	.
*rep	*	*
8AA\L	.	.
.	16b/L	.
8c#J 8A 8E\	16cc#/	.
.	16a/JJ	.
*Xrep	*	*
=14	=14	=14
*^	*	*
4E/	8E\L	(>16cc#\LL	.
.	.	16b\JJ)	.
.	.	(<32qqa#X/LLL	.
.	.	32qqb/	.
.	.	32qqcc#/JJJ)	.
.	8dJ 8B 8G#X\	(<16b/LL	.
.	.	16a#/JJ	.
4E/	8E\L	16b/LL)	.
.	.	16an'</	.
.	8dJ 8B\	16g#X'</	.
.	.	16f#'</JJ	.
=15	=15	=15	=15
4C#/	8C#\L	(<16e#X/LL	.
.	.	16g#X/	.
.	8BJ 8G#X 8E#X\	16b/	.
.	.	16dd/JJ)	.
*rep	*rep	*	*
4C#/	8C#\L	8.cc#^</L	.
.	8BJ 8G#X 8E#X\	.	.
.	.	16g#/Jk	.
*Xrep	*Xrep	*	*
=16	=16	=16	=16
!LO:TX:t=P:problem:mixed beam	!	!	!
8FF#/L	8ryy	(<16b/LL	.
.	.	16a/J	.
8c#J 8A 8F#\	8ryy	8.f#/J)	.
4BB/	8BB\L	.	.
.	.	(<16g#X/LL	.
.	8AJ 8F#\	16a/	.
.	.	16d#X/JJ)	.
!!LO:LB:g=original
=17	=17	=17	=17
!	!	!	!LO:DY:b:rj
4E/	8E\L	(>32e/LLL	f
.	.	32a/	.
.	.	32cc#/	.
.	.	32ee/JJJ	.
.	8c#J 8A\	32aa\LLL	.
.	.	32ccc#\	.
.	.	32fff#\	.
.	.	32eee\JJJ)	.
4E/	8E\L	8eee\	.
.	8dJ 8B\	16.g#X/LL	.
.	.	32b/JJk	.
*v	*v	*	*
=18	=18	=18
.	(<32qqb/LLL	.
.	32qqa/	.
.	32qqg#X/JJJ)	.
16c#LL 16A\	16a\LL|	.
(>32G#X\L	(>32b\L	.
32F#\JJJ	32cc#\JJJ	.
32E/LLL	32dd\LLL	.
32D/	32ee\	.
32C#/	32ff#\	.
32BB/JJJ)	32gg#X\JJJ	.
8AA/	8aa\)	.
8r	8r	.
=19:|!|:	=19:|!|:	=19:|!|:
*>D	*>D	*
*^	*	*
!	!	!	!LO:DY:b:rj
4AA/	8AA\L	(>16a#X\LL	p
!	!	!LO:TX:i:b:t=dolce	!
.	.	16b\	.
.	8AJ 8E 8C#\	16ggn\	.
.	.	16ff#\JJ)	.
*rep	*rep	*	*
4AA/	8AA\L	4ee\	.
.	8AJ 8E 8C#\	.	.
*Xrep	*Xrep	*	*
!!LO:LB:g=original
=20	=20	=20	=20
4AA/	8AA\L	(>16g#X\LL	.
.	.	16a\	.
.	8AJ 8F# 8D\	16ff#\	.
.	.	16ee\JJ)	.
*rep	*rep	*	*
4AA/	8AA\L	4dd\	.
.	8AJ 8F# 8D\	.	.
*Xrep	*Xrep	*	*
*v	*v	*	*
=21	=21	=21
!LO:TX:t=P:problem:mixed beam	!	!
8AA#X/L	(<16e#X/LL	.
.	16f#/	.
8c#J 8A#X 8F#\	16een/	.
.	16dd/JJ	.
*rep	*	*
!LO:TX:t=P:problem:mixed beam	!	!
8AA#/L	16cc#\LL)	.
.	16gg'>\	.
8c#J 8A# 8F#\	16ff#'>\	.
.	16ee'>\JJ	.
*Xrep	*	*
=22	=22	=22
*^	*	*
4BB/	8BB\L	(>16ee\LL	.
.	.	16dd\JJ)	.
.	.	(<32qqcc#/LLL	.
.	.	32qqdd/	.
.	.	32qqee/JJJ)	.
.	8BJ 8F# 8D\	16.dd\LL	.
.	.	32cc#\JJk	.
*rep	*rep	*	*
4BB/	8BB\L	4b\	.
.	8BJ 8F# 8D\	.	.
*Xrep	*Xrep	*	*
=23	=23	=23	=23
4D/	8D\L	(>16a#X\LL	.
.	.	16b\	.
.	8BJ 8F#\	16aan\)	.
.	.	32r	.
.	.	32gg\JJk|>	.
*rep	*rep	*	*
4D/	8D\L	4ff#\	.
.	8BJ 8F#\	.	.
*Xrep	*Xrep	*	*
!!LO:PB:g=original
=24	=24	=24	=24
4D/	8D\L	(>16a#X\LL	.
.	.	16b\	.
.	8BJ 8F#\	16gg\	.
.	.	32r	.
.	.	32ff#\JJk|>)	.
4E/	8E\L	8.ee\L	.
.	8dJ 8B 8G#X\	.	.
.	.	16dd\Jk	.
=25	=25	=25	=25
.	.	(<32qqb#X/LLL	.
!LO:TX:t=P:problem:mixed beam	!	!	!
.	.	32qqcc#/JJJ)	.
8AA/L	8ryy	(>32dd\LLL	.
.	.	32cc#\	.
.	.	32b#y\	.
.	.	32cc#\JJJ)	.
8c#\J 8A\ 8E\	8ryy	16.bbn\LL	.
.	.	32aa\JJk	.
!	!	!LO:TUP:a:problem:klamra łukowa	!
4AA/	8AA\L	24aa\LL	.
.	.	24gg\	.
.	.	24ee\JJ	.
.	8GJ 8E\	16.bny\LL	.
.	.	32cc#\JJk	.
*v	*v	*	*
=26	=26	=26
*>D1	*>D1	*
!	!LO:TX:a:i:t=Ima	!
!	!LO:TX:t=P:problem:wolty w utworze oznaczone łukiem, nie klamrą:global	!
!	!LO:TX:t=P:problem:mixed beam	!
8F# 8D\	16dd\LL	.
.	(>32d/L	.
.	32f#/JJJ	.
8r	32a\LLL	.
.	32dd\	.
.	32ff#\	.
.	32aa\JJJ)	.
!	!LO:TX:t=P:problem:mixed beam	!
8A 8F# 8D\	8ddd\L 8ff#\ 8dd\	.
8r	8a/J	.
!!LO:LB:g=original
=27:|!	=27:|!	=27:|!
*>D2	*>D2	*
!	!LO:TX:a:i:t=2da	!
!	!LO:TX:t=P:problem:mixed beam	!
8F# 8D\	16dd'>\LL	.
.	(>32d/L	.
.	32f#/JJJ	.
8r	32a\LLL	.
.	32dd\	.
.	32ff#\	.
.	32aa\JJJ	.
!	!LO:TX:a:t=P:problem:znak fermaty za podwójną kreską taktową	!
!	!LO:TX:a:t=P:problem:znak segno nad podwójną kreską	!
!	!LO:TX:a:t=[segno]	!LO:DY:b:rj
8A 8F# 8D\	8ddd|> 8ff# 8dd^<\)	f
=28||	=28||	=28||
*>E	*>E	*
*clefF4	*clefG2	*
*k[f#c#]	*k[f#c#]	*
*M2/4	*M2/4	*
!	!LO:TX:b:t=P:problem:kolejność: klucze, znaki przykluczowe, metrum	!
!	!LO:TX:i:a:t=Allegro.	!
!	!LO:TX:b:t=P:problem:znak graficzny segno pomiędzy pięcioliniami przed dynamiką "p"	!
!	!LO:TX:b:t=[segno]	!LO:DY:b:rj
8D\L	8aass>\L	p
8dJ 8A 8F#\	16aa\Jk	.
.	16r	.
*rep	*	*
8D\L	8ff#\	.
8dJ 8A 8F#\	16r	.
.	[>16ddd\	.
*Xrep	*	*
=29	=29	=29
8D\L	8ddd\L]	.
8dJ 8A 8F#\	(>16ddd\L	.
.	16ccc#\JJ)	.
*rep	*	*
8D\L	(>16eee\LL	.
.	16ddd\)	.
8dJ 8A 8F#\	(>16ccc#\	.
.	16bb\JJ)	.
*Xrep	*	*
!!LO:LB:g=original
=30	=30	=30
*^	*	*
4G/	8G\L	8bbT>\L	.
.	8dJ 8B\	16bb\Jk	.
.	.	16r	.
*rep	*rep	*	*
4G/	8G\L	8b\	.
.	8dJ 8B\	16r	.
.	.	[>16bb\	.
*Xrep	*Xrep	*	*
=31	=31	=31	=31
4G/	8G\L	8bb\L]	.
.	8dJ 8B\	(>16bb\L	.
.	.	16aa\JJ)	.
*rep	*rep	*	*
4G/	8G\L	16gg'>\LL	.
.	.	16ff#'>\	.
.	8dJ 8B\	16ee'>\	.
.	.	16dd'>\JJ	.
*Xrep	*Xrep	*	*
=32	=32	=32	=32
4A/	8A\L	8cc#t>\L	.
.	8gJ 8e\	16cc#\Jk	.
.	.	16r	.
*rep	*rep	*	*
4A/	8A\L	16a/	.
.	.	16r	.
.	8gJ 8e\	[>8ccc#\	.
*Xrep	*Xrep	*	*
=33	=33	=33	=33
4A/	8A\L	8ccc#\L]	.
.	8gJ 8e\	(>16eee\L	.
.	.	16ddd\JJ)	.
*rep	*rep	*	*
4A/	8A\L	16ccc#'>\LL	.
.	.	16bb'>\	.
.	8gJ 8e\	16aa'>\	.
.	.	16gg'>\JJ	.
*Xrep	*Xrep	*	*
!!LO:LB:g=original
=34	=34	=34	=34
!	!	!	!LO:DY:b:rj
4A/	8A\L	16ff#\LL	f
.	.	16gg\	.
.	8f#J 8d\	16aa\	.
.	.	16bb\JJ	.
4A/	8A\L	16ccc#\LL	.
.	.	16ddd\	.
.	8gJ 8e\	16eee\	.
.	.	16ccc#\JJ	.
*v	*v	*	*
=35	=35	=35
8f#L 8d\	16ddd\LL	.
.	16fff#\	.
8gJ 8e 8A\	16ccc#\	.
.	16eee\JJ	.
8f# 8d\	8ddd\	.
8r	8r	.
=36:|!	=36:|!	=36:|!
*>F	*>F	*
(<8qAA/	.	.
*^	*	*
*2\right	*2\right	*	*
!	!LO:N:vis=2	!	!LO:DY:b:rj
2A/)	8A\L	8ee'>\L	f
.	8e 8c#\	(>16ccc#\L	.
.	.	16bb\JJ)	.
.	8e 8c#\	(>16ddd\LL	.
.	.	16ccc#\)	.
.	8eJ 8c#\	16bb'>\	.
.	.	16aa'>\JJ	.
=37	=37	=37	=37
!	!LO:N:vis=2	!	!
2D/	8D\L	(>16bb\LL	.
.	.	16aa\)	.
.	8B 8F#\	(>16aa\	.
.	.	16gg#X\JJ)	.
.	8B 8F#\	(>16gg#\LL	.
.	.	16ff#\)	.
.	8BJ 8F#\	(>16ff#\	.
.	.	16ee\JJ)	.
!!LO:LB:g=original
=38	=38	=38	=38
.	.	8qgg#X/	.
4D/	8D\L	8.ff#\L	.
.	8BJ 8F#\	.	.
.	.	16ee#X\Jk	.
*rep	*rep	*	*
4D/	8D\L	8.ff#\L	.
.	8BJ 8F#\	.	.
.	.	16dd\Jk	.
*Xrep	*Xrep	*	*
=39	=39	=39	=39
4D/	8D\L	4.b\	.
.	8BJ 8F#\	.	.
*rep	*rep	*	*
4D/	8D\L	.	.
.	8BJ 8F#\	16b\LL	.
.	.	16cc#\JJ	.
*Xrep	*Xrep	*	*
*v	*v	*	*
=40	=40	=40
!	!LO:TX:i:b:t=staccato	!
(<8qE/	.	.
!	!	!LO:DY:b:rj
8B\L)	16dd'>\LL	p
.	16ee'>\	.
8A'>\	16cc#'>\	.
.	16dd'>\JJ	.
8G#X'>\	16b'>\LL	.
.	16cc#'>\	.
8F#'>\J	16a'>\	.
.	16b'>\JJ	.
=41	=41	=41
8E'</L	16g#X'>\LL	.
.	16ee'>\	.
8D'</	16f#'>\	.
.	16ee'>\JJ	.
8C#'</	16e'>\LL	.
.	16ee'>\	.
8GG#X'</J	16dd'>\	.
.	16b'>\JJ	.
!!LO:LB:g=original
=42	=42	=42
!	!	!LO:DY:b:rj
8AA'</L	16cc#'>\LL	f
.	16a'>\	.
16BB/L	16b'>\	.
16C#/JJ	16cc#'>\JJ	.
16D\LL	16dd'>\LL	.
16E\	16ee'>\	.
16F#\	16ff#'>\	.
16G#X\JJ	16gg#X'>\JJ	.
=43	=43	=43
*>F1	*>F1	*
!	!LO:TX:a:i:t=Ima	!
8dL 8B 8E\	(>16bb\LL	.
.	16aa\)	.
8dJ 8B 8E\	16gg#X'>\	.
.	16bb'>\JJ	.
8c# 8A\	8aa'>\L	.
8r	16r	.
.	16ee\Jk	.
=44:|!	=44:|!	=44:|!
*>F2	*>F2	*
!	!LO:TX:a:i:t=2da	!
8dL 8B 8E\	(>16bb\LL	.
.	16aa\)	.
8dJ 8B 8E\	16gg#X'>\	.
.	16bb'>\JJ	.
!	!LO:TX:i:b:t=V&colon; S&colon;	!
!	!LO:TX:b:t=P:problem:znak fermaty za podwójną kreską taktową	!
8c# 8A\	8aa'>\	.
!!LO:PB:g=original
=||	=||	=||
*>G	*>G	*
*clefF4	*clefG2	*
*k[f#c#]	*k[f#c#]	*
*M2/4	*M2/4	*
!	!LO:TX:i:a:t=piu Allegro.	!
!	!LO:TX:b:t=P:problem:kolejność: klucze, znaki przykluczowe, metrum	!LO:DY:b:rj
8r	(>8a#X/	f
=45	=45	=45
8GG\L	8b\L)	.
8GJ 8E 8BB\	(>16gg\L	.
.	16ff#\JJ)	.
*rep	*	*
8GG\L	(>16aa\LL	.
.	16gg\	.
8GJ 8E 8BB\	16ff#\	.
.	16ee\JJ)	.
*Xrep	*	*
=46	=46	=46
8GG\L	(>16ff#\LL	.
.	16ee\)	.
8GJ 8E 8BB\	(>16ee\	.
.	16dd\JJ)	.
*rep	*	*
8GG\L	(>16dd\LL	.
.	16cc#\)	.
8GJ 8E 8BB\	(>16cc#\	.
.	16b\JJ)	.
*Xrep	*	*
=47	=47	=47
8AA\L	8a'>\L	.
8AJ 8F# 8D\	(>16ff#\L	.
.	16ee\JJ)	.
*rep	*	*
8AA\L	(>16gg\LL	.
.	16ff#\	.
8AJ 8F# 8D\	16ee\	.
.	16dd\JJ)	.
*Xrep	*	*
!!LO:LB:g=original
=48	=48	=48
8AA\L	(>16ee\LL	.
.	16dd\)	.
8AJ 8F# 8D\	(>16dd\	.
.	16cc#\JJ)	.
*rep	*	*
8AA\L	(>16cc#\LL	.
.	16b\)	.
8AJ 8F# 8D\	(>16b\	.
.	16a\JJ)	.
*Xrep	*	*
=49	=49	=49
*^	*	*
4AA#X/	8AA#\L	8g'>\L	.
.	8GJ 8E 8C#\	(>16ee\L	.
.	.	16dd#X\JJ)	.
*rep	*rep	*	*
4AA#X/	8AA#X\L	(>16ff#\LL	.
.	.	16ee\	.
.	8GJ 8E 8C#\	()>16ee\	.
.	.	16ddn\JJ)	.
*Xrep	*Xrep	*	*
=50	=50	=50	=50
4AA#X/	8AA#\L	(>16dd\LL	.
.	.	16cc#\)	.
.	8GJ 8E 8C#\	(>16cc#\	.
.	.	16b\JJ)	.
*rep	*rep	*	*
4AA#X/	8AA#X\L	(<16b/LL	.
.	.	16a#X/)	.
.	8GJ 8E 8C#\	(<16a#/	.
.	.	16gn/JJ)	.
*Xrep	*Xrep	*	*
=51	=51	=51	=51
4BB/	8BB\L	8f#'>\L	.
.	8F#J 8D\	(>16dd\L	.
.	.	16cc#\JJ)	.
*rep	*rep	*	*
4BB/	8BB\L	(>16ee\LL	.
.	.	16dd\)	.
.	8F#J 8D\	(>16dd\	.
.	.	16cc#\JJ)	.
*Xrep	*Xrep	*	*
!!LO:LB:g=original
=52	=52	=52	=52
4BB/	8BB\L	(>16b\LL	.
.	.	16cc#\	.
.	8F#J 8D\	16dd\	.
.	.	16cc#\JJ)	.
*rep	*rep	*	*
4BB/	8BB\L	(>16cc#\LL	.
.	.	16b\	.
.	8F#J 8D\	(>16b\)	.
.	.	16a#X\JJ)	.
*Xrep	*Xrep	*	*
=53	=53	=53	=53
4GG/	8GG\L	8b'>\L	.
.	8GJ 8E 8BB\	(>16gg\L	.
.	.	16ff#\JJ)	.
*rep	*rep	*	*
4GG/	8GG\L	(>16aa\LL	.
.	.	16gg\)	.
.	8GJ 8E 8BB\	(>16gg\	.
.	.	16ff#\JJ)	.
*Xrep	*Xrep	*	*
=54	=54	=54	=54
4GG/	8GG\L	(>16ff#\LL	.
.	.	16ee\)	.
.	8GJ 8E 8BB\	(>16ee\	.
.	.	16dd\JJ)	.
*rep	*rep	*	*
4GG/	8GG\L	(>16dd\LL	.
.	.	16cc#\)	.
.	8GJ 8E 8BB\	(>16cc#\	.
.	.	16b\JJ)	.
*Xrep	*Xrep	*	*
=55	=55	=55	=55
4AA/	8AA\L	8a'>\L	.
.	8AJ 8F# 8D\	(>16ff#\L	.
.	.	16ee\JJ)	.
*rep	*rep	*	*
4AA/	8AA\L	(>16gg\LL	.
.	.	16ff#\)	.
.	8AJ 8F# 8D\	(>16ee\	.
.	.	16dd\JJ)	.
*Xrep	*Xrep	*	*
!!LO:LB:g=original
=56	=56	=56	=56
4AA/	8AA\L	(>16ee\LL	.
.	.	16dd\)	.
.	8AJ 8F# 8D\	(>16dd\	.
.	.	16cc#\JJ)	.
*rep	*rep	*	*
4AA/	8AA\L	(>16cc#\LL	.
.	.	16b\)	.
.	8AJ 8F# 8D\	(>16b\	.
.	.	16a\JJ)	.
*Xrep	*Xrep	*	*
*v	*v	*	*
=57	=57	=57
!	!	!LO:DY:b:rj
8AA 8AAA/	16cc#\LL	f
.	16b\	.
8AL 8G 8E 8AA\	16a\	.
.	16b\JJ	.
8A 8G 8E 8AA\	16cc#\LL	.
.	16dd\	.
8AJ 8G 8E 8AA\	16ee\	.
.	16ff#\JJ	.
=58	=58	=58
*tremolo	*	*
8AL 8G 8E 8AA/	16gg\LL	.
.	16ff#\	.
8A 8G 8E 8AA/	16ee\	.
.	16ff#\JJ	.
8A 8G 8E 8AA/	16gg\LL	.
.	16aa\	.
8AJ 8G 8E 8AA/	16bb\	.
.	16ccc#\JJ	.
*Xtremolo	*	*
=59	=59	=59
4A 4F# 4D\	16ddd\LL	.
.	16fff#\	.
.	16eee\	.
.	16ddd\JJ	.
4A 4E 4AA\	16ccc#\LL	.
.	16ddd\	.
.	16eee\	.
.	16ccc#\JJ	.
!!LO:LB:g=original
=60	=60	=60
4A 4F# 4D\	4ddd\	.
8AL 8F# 8D\	16ff#'>\LL	.
.	16aa'>\J	.
8AJ 8F# 8D\	(>[>8dddJ 8ff# 8dd'>\	.
=61	=61	=61
4A 4E 4AA\	16ddd\LL]	.
.	16ccc#\)	.
.	16ggg'>\	.
.	16eee'>\JJ	.
4A 4G 4E 4AA\	(>16ccc#\LL	.
.	16aa\)	.
.	16bb'>\	.
.	16ccc#'>\JJ	.
=62	=62	=62
4A 4F# 4D\	4ddd\	.
8AL 8F# 8D\	16ff#'>\LL	.
.	16aa'>\J	.
!	!LO:TX:a:t=P:problem:niejednoznaczny zapis łuku	!
8AJ 8F# 8D\	(>[>8dddJ 8ff# 8dd'>\	.
=63	=63	=63
4A 4E 4AA\	16ddd\LL]	.
.	16ccc#\)	.
.	16ggg'>\	.
.	16eee'>\JJ	.
4A 4G 4E 4AA\	(>16ccc#\LL	.
.	16aa\)	.
.	16bb'>\	.
.	16ccc#'>\JJ	.
!!LO:LB:g=original
=64	=64	=64
4A 4F# 4D\	4ddd\	.
4r	4r	.
=65	=65	=65
4d 4A 4F# 4D\	4fff# 4ddd 4aa\	.
8.r	8.r	.
16D\	16d/	.
=66	=66	=66
2D;>\	2d;>/	.
==	==	==
*-	*-	*-
!!!system-decoration: {(s1,s2)}
!!!RDF**kern: | = vertical stroke
!!!RDF**kern: > = above
!!!RDF**kern: < = below
!!!EED: Antoni Szymański
!!!EST: 2021-05-04
!!!AIN: 2 piano
!!!ENC: Krzysztof Stępień
!!!END: 2021-04-10
